src/assets/img/product-card-bleach.svg

<svg width="20" height="20" viewBox="0 0 20 20" fill="none" xmlns="http://www.w3.org/2000/svg">
<path d="M19.8305 17.5812L17.9312 16.1773L14.0318 8.37058L19.8305 4.08454C20.0161 3.94782 20.0551 3.687 19.9184 3.50185C19.78 3.3167 19.5197 3.27889 19.3357 3.41478L13.654 7.61435L10.3727 1.04503C10.2311 0.762335 9.76888 0.762335 9.62728 1.04503L6.34593 7.61431L0.664248 3.41478C0.481126 3.27889 0.21992 3.31674 0.0815637 3.50185C-0.0551524 3.687 -0.0160907 3.94782 0.169453 4.08454L5.96821 8.37058L2.06879 16.1773L0.169453 17.5812C-0.0160907 17.7179 -0.0551524 17.9787 0.0815637 18.1639C0.16375 18.2741 0.28988 18.3327 0.416831 18.3327C0.503079 18.3327 0.590187 18.3063 0.664209 18.2509L1.24885 17.8188L0.877408 18.5624C0.813112 18.6915 0.819635 18.845 0.895298 18.968C0.971781 19.091 1.10607 19.166 1.2501 19.166H18.7498C18.8938 19.166 19.0281 19.091 19.1046 18.968C19.1803 18.845 19.1867 18.6914 19.1224 18.5624L18.751 17.8188L19.3356 18.2509C19.4097 18.3063 19.4968 18.3327 19.583 18.3327C19.71 18.3327 19.8361 18.2741 19.9183 18.1639C20.0551 17.9787 20.0161 17.7179 19.8305 17.5812ZM16.4513 15.0835L10.7005 10.8328L13.3476 8.87628L16.4513 15.0835ZM10 2.18149L12.9695 8.12024L10 10.3151L7.03049 8.12024L10 2.18149ZM6.65245 8.87632L9.29955 10.8329L3.54864 15.0835L6.65245 8.87632ZM1.92399 18.3327L2.72741 16.726L10 11.3506L17.2726 16.726L18.076 18.3327H1.92399Z" fill="#787A80"/>
</svg>

<svg width="20" height="20" fill="none" xmlns="http://www.w3.org/2000/svg"><path d="m19.83 17.581-1.899-1.404-3.9-7.806 5.8-4.286a.416.416 0 1 0-.495-.67l-5.682 4.2-3.281-6.57c-.142-.283-.604-.283-.746 0l-3.281 6.57-5.682-4.2a.416.416 0 1 0-.495.67l5.8 4.286-3.9 7.806-1.9 1.404a.416.416 0 1 0 .495.67l.585-.432-.372.743a.418.418 0 0 0 .373.604h17.5a.419.419 0 0 0 .372-.604l-.371-.743.585.432a.418.418 0 0 0 .583-.087.416.416 0 0 0-.088-.583Zm-3.379-2.497-5.75-4.251 2.647-1.957 3.103 6.208ZM10 2.18l2.97 5.94L10 10.314 7.03 8.12 10 2.181ZM6.652 8.876 9.3 10.833l-5.751 4.25 3.103-6.207Zm-4.728 9.457.803-1.607L10 11.351l7.273 5.375.803 1.607H1.924Z" fill="#787A80"/></svg>
